icons/numix/16x16/mimetypes/application-x-php.svg

<?xml version="1.0" encoding="UTF-8" standalone="no"?>
<svg
   xmlns:dc="http://purl.org/dc/elements/1.1/"
   xmlns:cc="http://creativecommons.org/ns#"
   xmlns:rdf="http://www.w3.org/1999/02/22-rdf-syntax-ns#"
   xmlns:svg="http://www.w3.org/2000/svg"
   xmlns="http://www.w3.org/2000/svg"
   xmlns:sodipodi="http://sodipodi.sourceforge.net/DTD/sodipodi-0.dtd"
   xmlns:inkscape="http://www.inkscape.org/namespaces/inkscape"
   width="16"
   height="16"
   viewBox="0 0 16 16"
   id="svg2"
   version="1.1"
   inkscape:version="0.48.5 r10040"
   sodipodi:docname="application-x-php.svg">
  <metadata
     id="metadata24">
    <rdf:RDF>
      <cc:Work
         rdf:about="">
        <dc:format>image/svg+xml</dc:format>
        <dc:type
           rdf:resource="http://purl.org/dc/dcmitype/StillImage" />
      </cc:Work>
    </rdf:RDF>
  </metadata>
  <defs
     id="defs22" />
  <sodipodi:namedview
     pagecolor="#ffffff"
     bordercolor="#666666"
     borderopacity="1"
     objecttolerance="10"
     gridtolerance="10"
     guidetolerance="10"
     inkscape:pageopacity="0"
     inkscape:pageshadow="2"
     inkscape:window-width="1280"
     inkscape:window-height="970"
     id="namedview20"
     showgrid="true"
     inkscape:zoom="29.5"
     inkscape:cx="3.5108396"
     inkscape:cy="9.2793173"
     inkscape:window-x="0"
     inkscape:window-y="0"
     inkscape:window-maximized="1"
     inkscape:current-layer="svg2">
    <inkscape:grid
       type="xygrid"
       id="grid3780" />
  </sodipodi:namedview>
  <path
     style="fill:#5a68a4;fill-opacity:1"
     d="M 2.667969,-4.457e-4 C 2.324219,-4.457e-4 2,0.3378123 2,0.696447 L 2,15.303108 C 2,15.641365 2.34375,16 2.667969,16 l 10.664062,0 C 13.65625,16 14,15.641365 14,15.303108 L 14,3.9995541 10,-4.457e-4 z"
     id="path4-1"
     inkscape:connector-curvature="0"
     sodipodi:nodetypes="ssssssccs" />
  <path
     style="fill:#000000;fill-opacity:0.19599998"
     d="m 10.583223,3.3315851 0.0154,0.01953 0.04005,-0.01953 z m 0.02978,0.667969 3.387,3.664062 0,-3.664062 z"
     id="path6"
     inkscape:connector-curvature="0"
     sodipodi:nodetypes="cccccccc" />
  <path
     style="fill:#ffffff;fill-opacity:0.39200003"
     d="m 10,-4.457e-4 3.996396,3.9999998 -3.383784,0 C 10.313513,3.9995541 10,3.6824371 10,3.3833381 z"
     id="path8"
     inkscape:connector-curvature="0"
     sodipodi:nodetypes="ccssc" />
  <g
     style="fill:#f9f9f9;fill-opacity:1"
     id="g12"
     transform="matrix(1.8028169,0,0,1.8028169,-6.4225352,-7.2253521)">
    <path
       d="m 6.878906,8.011719 c 0.167969,0 0.304688,0.058593 0.402344,0.175781 0.097656,0.117188 0.148438,0.277344 0.148438,0.488281 0,0.207031 -0.039063,0.40625 -0.121094,0.597657 C 7.230469,9.464844 7.121094,9.617188 6.980469,9.730469 6.839844,9.84375 6.6875,9.898438 6.523438,9.898438 6.425781,9.898438 6.339844,9.878906 6.269531,9.839844 6.199219,9.796875 6.136719,9.730469 6.078125,9.632812 l -0.015625,0 C 6.046875,9.804688 6.023438,9.964844 5.988281,10.113281 l -0.128906,0.554688 -0.527344,0 0.601563,-2.621094 0.402344,0 -0.03125,0.277344 0.015624,0 c 0.164063,-0.207031 0.347657,-0.3125 0.558594,-0.3125 M 6.664062,8.410156 c -0.078124,0 -0.15625,0.035156 -0.230468,0.109375 C 6.359375,8.59375 6.300781,8.691406 6.253906,8.8125 6.210938,8.933594 6.1875,9.070312 6.1875,9.214844 c 0,0.089844 0.023438,0.15625 0.066406,0.210937 0.042969,0.050781 0.101563,0.078125 0.179688,0.078125 0.078125,0 0.152344,-0.039062 0.222656,-0.113281 C 6.726562,9.316406 6.785156,9.214844 6.828125,9.082031 6.871094,8.953125 6.894531,8.824219 6.894531,8.695312 c 0,-0.191406 -0.078125,-0.285156 -0.230469,-0.285156"
       id="path14"
       style="fill:#f9f9f9;fill-opacity:1"
       inkscape:connector-curvature="0" />
    <path
       d="m 8.769531,9.867188 -0.527343,0 0.238281,-1.0625 C 8.5,8.730469 8.511719,8.664062 8.511719,8.609375 c 0,-0.132813 -0.066407,-0.199219 -0.191407,-0.199219 -0.105468,0 -0.203124,0.0625 -0.292968,0.183594 -0.085938,0.125 -0.15625,0.296875 -0.207032,0.519531 l -0.171874,0.753907 -0.527344,0 0.578125,-2.535157 0.527343,0 C 8.183594,7.53125 8.148438,7.679688 8.121094,7.785156 8.097656,7.890625 8.046875,8.058594 7.972656,8.289062 l 0.011719,0 C 8.058594,8.207031 8.140625,8.136719 8.226562,8.089844 8.316406,8.039062 8.417969,8.011719 8.535156,8.011719 c 0.164063,0 0.285156,0.046875 0.375,0.136719 C 9,8.238281 9.042969,8.367188 9.042969,8.535156 c 0,0.082032 -0.015625,0.179688 -0.039063,0.292969 L 8.769531,9.867188"
       id="path16"
       style="fill:#f9f9f9;fill-opacity:1"
       inkscape:connector-curvature="0" />
    <path
       d="m 10.113281,8.011719 c 0.171875,0 0.304688,0.058593 0.40625,0.175781 0.09766,0.117188 0.148438,0.277344 0.148438,0.488281 0,0.207031 -0.04297,0.40625 -0.121094,0.597657 -0.08203,0.191406 -0.191406,0.34375 -0.328125,0.457031 -0.140625,0.113281 -0.292969,0.167969 -0.460938,0.167969 -0.097656,0 -0.179687,-0.019532 -0.25,-0.058594 C 9.4375,9.796875 9.375,9.730469 9.3125,9.632812 l -0.011719,0 C 9.285156,9.804688 9.261719,9.964844 9.222656,10.113281 l -0.125,0.554688 -0.527344,0 0.601563,-2.621094 0.402344,0 -0.03125,0.277344 0.015625,0 C 9.71875,8.117188 9.90625,8.011719 10.113281,8.011719 M 9.902344,8.410156 c -0.078125,0 -0.15625,0.035156 -0.230469,0.109375 C 9.597656,8.59375 9.539062,8.691406 9.492188,8.8125 9.449219,8.933594 9.425781,9.070312 9.425781,9.214844 c 0,0.089844 0.023438,0.15625 0.066407,0.210937 0.042968,0.050781 0.101562,0.078125 0.175781,0.078125 0.078125,0 0.15625,-0.039062 0.226562,-0.113281 0.070313,-0.074219 0.128907,-0.175781 0.171875,-0.308594 0.04297,-0.128906 0.06641,-0.257812 0.06641,-0.386719 0,-0.191406 -0.07812,-0.285156 -0.230468,-0.285156"
       id="path18"
       style="fill:#f9f9f9;fill-opacity:1"
       inkscape:connector-curvature="0" />
  </g>
</svg>

<svg width="16" xmlns="http://www.w3.org/2000/svg" height="16" viewBox="0 0 16 16" xmlns:xlink="http://www.w3.org/1999/xlink">
<path style="fill:#5a68a4" d="M 2.667969 0.332031 C 2.324219 0.332031 2 0.65625 2 1 L 2 15 C 2 15.324219 2.34375 15.667969 2.667969 15.667969 L 13.332031 15.667969 C 13.65625 15.667969 14 15.324219 14 15 L 14 4.667969 L 9.667969 0.332031 Z "/>
<path style="fill:#fff;fill-opacity:.392" d="M 9.667969 0.332031 L 14 4.667969 L 10.332031 4.667969 C 10.007812 4.667969 9.667969 4.324219 9.667969 4 Z "/>
<path style="fill:#000;fill-opacity:.196" d="M 9.667969 4 L 9.6875 4.019531 L 9.738281 4 Z M 10.332031 4.667969 L 14 8.332031 L 14 4.667969 Z "/>
<path style="fill:#fff;fill-rule:evenodd" d="M 12 9 C 12 10.472656 10.210938 11.667969 8 11.667969 C 5.789062 11.667969 4 10.472656 4 9 C 4 7.527344 5.789062 6.332031 8 6.332031 C 10.210938 6.332031 12 7.527344 12 9 Z "/>
<g style="fill:#5a68a4">
<path d="M 6.878906 8.011719 C 7.046875 8.011719 7.183594 8.070312 7.28125 8.1875 C 7.378906 8.304688 7.429688 8.464844 7.429688 8.675781 C 7.429688 8.882812 7.390625 9.082031 7.308594 9.273438 C 7.230469 9.464844 7.121094 9.617188 6.980469 9.730469 C 6.839844 9.84375 6.6875 9.898438 6.523438 9.898438 C 6.425781 9.898438 6.339844 9.878906 6.269531 9.839844 C 6.199219 9.796875 6.136719 9.730469 6.078125 9.632812 L 6.0625 9.632812 C 6.046875 9.804688 6.023438 9.964844 5.988281 10.113281 L 5.859375 10.667969 L 5.332031 10.667969 L 5.933594 8.046875 L 6.335938 8.046875 L 6.304688 8.324219 L 6.320312 8.324219 C 6.484375 8.117188 6.667969 8.011719 6.878906 8.011719 M 6.664062 8.410156 C 6.585938 8.410156 6.507812 8.445312 6.433594 8.519531 C 6.359375 8.59375 6.300781 8.691406 6.253906 8.8125 C 6.210938 8.933594 6.1875 9.070312 6.1875 9.214844 C 6.1875 9.304688 6.210938 9.371094 6.253906 9.425781 C 6.296875 9.476562 6.355469 9.503906 6.433594 9.503906 C 6.511719 9.503906 6.585938 9.464844 6.65625 9.390625 C 6.726562 9.316406 6.785156 9.214844 6.828125 9.082031 C 6.871094 8.953125 6.894531 8.824219 6.894531 8.695312 C 6.894531 8.503906 6.816406 8.410156 6.664062 8.410156 "/>
<path d="M 8.769531 9.867188 L 8.242188 9.867188 L 8.480469 8.804688 C 8.5 8.730469 8.511719 8.664062 8.511719 8.609375 C 8.511719 8.476562 8.445312 8.410156 8.320312 8.410156 C 8.214844 8.410156 8.117188 8.472656 8.027344 8.59375 C 7.941406 8.71875 7.871094 8.890625 7.820312 9.113281 L 7.648438 9.867188 L 7.121094 9.867188 L 7.699219 7.332031 L 8.226562 7.332031 C 8.183594 7.53125 8.148438 7.679688 8.121094 7.785156 C 8.097656 7.890625 8.046875 8.058594 7.972656 8.289062 L 7.984375 8.289062 C 8.058594 8.207031 8.140625 8.136719 8.226562 8.089844 C 8.316406 8.039062 8.417969 8.011719 8.535156 8.011719 C 8.699219 8.011719 8.820312 8.058594 8.910156 8.148438 C 9 8.238281 9.042969 8.367188 9.042969 8.535156 C 9.042969 8.617188 9.027344 8.714844 9.003906 8.828125 L 8.769531 9.867188 "/>
<path d="M 10.113281 8.011719 C 10.285156 8.011719 10.417969 8.070312 10.519531 8.1875 C 10.617188 8.304688 10.667969 8.464844 10.667969 8.675781 C 10.667969 8.882812 10.625 9.082031 10.546875 9.273438 C 10.464844 9.464844 10.355469 9.617188 10.21875 9.730469 C 10.078125 9.84375 9.925781 9.898438 9.757812 9.898438 C 9.660156 9.898438 9.578125 9.878906 9.507812 9.839844 C 9.4375 9.796875 9.375 9.730469 9.3125 9.632812 L 9.300781 9.632812 C 9.285156 9.804688 9.261719 9.964844 9.222656 10.113281 L 9.097656 10.667969 L 8.570312 10.667969 L 9.171875 8.046875 L 9.574219 8.046875 L 9.542969 8.324219 L 9.558594 8.324219 C 9.71875 8.117188 9.90625 8.011719 10.113281 8.011719 M 9.902344 8.410156 C 9.824219 8.410156 9.746094 8.445312 9.671875 8.519531 C 9.597656 8.59375 9.539062 8.691406 9.492188 8.8125 C 9.449219 8.933594 9.425781 9.070312 9.425781 9.214844 C 9.425781 9.304688 9.449219 9.371094 9.492188 9.425781 C 9.535156 9.476562 9.59375 9.503906 9.667969 9.503906 C 9.746094 9.503906 9.824219 9.464844 9.894531 9.390625 C 9.964844 9.316406 10.023438 9.214844 10.066406 9.082031 C 10.109375 8.953125 10.132812 8.824219 10.132812 8.695312 C 10.132812 8.503906 10.054688 8.410156 9.902344 8.410156 "/>
</g>
</svg>
